X: 24
T:Lark in the Morning, The
M:6/8
L:1/8
R:jig
K:D
ABA AFA |B3 BdB|ABA Ade |fed BdB|ABA AFA |B3 BAB|def afe|1fed BdB :|2fed
 BAB|
|:def a2 a|baf afe|def afe|fed BAB|def a2 a|baf a2 f|gag fgf|edB BAB :|
|:def fef|fef fef|def fef|edB BAB|def fef|fef fef|gag fgf|edB BAB:|
|:Add fdd|edd fdd|Add fdd|edB BAF|Add fdd|edd f2 f|gag fgf|edB BAB :|
